X:1
T:Blumenlieder
T:Himmelschlüssel
T:Blumenlieder 
T:2. Himmelschlüssel
T:Mathilde Kralik 
T:Irene Zoepf 
T:OpenScore (CC0)
T:OpenScore (CC0)
C:Mathilde Kralik (Mathilde Aloisia Kralik von Meyrswalden)
Z:Irene Zoepf
Z:OpenScore (CC0)
%%score ( 1 2 ) { ( 3 5 ) | ( 4 6 ) }
L:1/8
Q:1/4=116
M:4/4
K:Db
V:1 treble nm="Gesang\nVoice"
V:2 treble 
V:3 treble nm="Piano"
V:5 treble 
V:4 bass 
V:6 bass 
V:1
"^Heiter" z8 | z8 | B c d c B A B c | d2 A2 z4 |[Q:1/4=100] x4[Q:1/4=90] x e[Q:1/4=80] f3/2 e/ | %5
w: ||Him- mel- schlüs- sel pflück- ten wir mit-|sam- men;|* * nen-|
[Q:1/4=116] e8 | z8 | c e A c F =G/A/ B G | E4 z4 | z8[Q:1/4=100][Q:1/4=90] | %10
w: schein,||spann uns ganz in gold’- ne * Fä- den|ein,||
[Q:1/4=75] z8[Q:1/4=116] | B c d c B A B3/2 c/ | f2 c2 z4 | z8 | z8 | c c c c c (B/=A/) =G F | %16
w: |Him- mel- schlüs- sel pflück- ten wir mit-|sam- men.|||Da- mals war es Früh- ling * um uns|
 =E2 z2 z4 | =d d d3 (c/B/) =A =G | F F =G2 F z z2 | z8[Q:1/4=100][Q:1/4=90] | %20
w: her;|jun- ger Früh- ling * war uns|im Ge- mü- te;||
[Q:1/4=116] c c c c c (B/=A/) =G F | =E2 z2 z4 | =d d d2 z (c/B/) =A =G | %23
w: tru- gen nach dem Him- mel * kein Be-|gehr,|schau- ten nur, wie * schön die|
[Q:1/4=120] e3 e[Q:1/4=123]!<(! =g4-!<)! |[Q:1/4=126] g2 =A2 z4 | !fermata!z8 | B c d c B A B =B | %27
w: Er- de blüh-|* te.||Him- mel- schlüs- sel pflück- ten wir mit-|
 c2 =G2 z4 | z8 | z8 |] %30
w: sam- men.|||
V:2
 x8 | x8 | x8 | x8 | d e f e d c d3/2 e/ | x8 | x8 | x8 | x8 | x8 | x8 | x8 | x8 | x8 | x8 | x8 | %16
w: ||||auf den Wie- sen lag der Son- *||||||||||||
 x8 | x8 | x8 | x8 | x8 | x8 | x8 | x8 | x8 | x8 | x8 | x8 | x8 | x8 |] %30
w: ||||||||||||||
V:3
!mf! (.[FB].[Fc].[Fd].[Fc] .[FB].[FA].[FB])!>![=Gc] | (.[CA]4 .[CA]4) | %2
 (.[FB].[Fc].[Fd].[Fc] .[FB].[FA].[FB])!^![_Gc] | d(ef)(e d)(cd)e | %4
"_rit. e cresc." [Ff]6!f!!8va(! [=gd'=g']2 | %5
!ff! [ac'a'](([be'-b'][c'e'c'']))(([be'-b'] [ae'a']))(.[e'b'].[a'c''].[b'd'']) | %6
!p! ([a'c''][=g'e''][f'a'][e'c''] f'=g'/a'/ b'g')!8va)! |!p! ([ac'][=ge'][fa][ec'] f=g/a/ bg) | %8
 (e_gce AB/c/dc) | (B!<(!c/d/ e2-!<)! ef/e/!>(! e/d/c/d/)!>)! | [=Gc]2"_a tempo" z2 !^![FB]4- | %11
 [FB](.[Fc].[Fd].[Fc]!<(! .[FB].[FA].[FB])[=Ec]!<)! | %12
!f! [=Af]([A-=g][A=a])([A-g] [Af])([A-g][Aa])[Ab] | x2 b2 x2 =g2 | (f/=g/=a) .ag .f(=e/=d/) c2 | %15
!mf! z .[C=Ac].[CBc].[C=Gc] .[CAc].[CFc].[=D=G].[DF] | %16
 [C=E]2 z!<(! [=E=Gc] !^![F=Ac].[Acf].[cf=a].[fac']!<)! |!f! z [FB=d] z [^FBd] z [=Gc] z [GB] | %18
 x2 f2 x2 f2 | z (_e/f/ e2) z"^rit."!>(! (_d/e/ d)c!>)! | %20
!p! z [C=Ac].[CBc].[C=Gc] .[CAc].[CFc].[=D=G].[DF] | %21
 [C=E]2 z!<(! [=E=Gc] .[F=Ac].[Acf].[cf=a].[fac']!<)! | z [=db=d'] z [dbd'] z [c=gc'] z2 | %23
"_molto cresc. e string." z [ec'e'] z [ec'e'] z [e=a]/e'/!<(! [=ea]/=e'/[fa]/f'/ | %24
 [^f=a]/^f'/[=ga]/=g'/ ^g/^g'/=a/!<)!=a'/ [b=e'b'] (B/c/) (c/=e/)(e/=g/) | %25
!ff!!>(! !^![B=eb] z !^!!fermata![Bfb]6!>)! | %26
!p! (.[FB].[Fc].[Fd].[Fc] .[FB].[FA].[FB])!tenuto![F=B] | %27
 [=Ec](([=G=d][c=e]))(([Gd] [Ec]))(([Gd][ce]))((([=Gd=g] | %28
 [c=e])))(([=Gd=g][ce]))(([Gdg] [ce]))(([Gdg][ce]))([Gdg-] | [c=e=g]8) |] %30
V:4
 (.D.C.B,.C .D.C.D)!>![E,D] | (.[A,,E,]4 .[A,,E,]4) | (.D.C.B,.C .D.C.D)!^![A,E] | %3
 [D,A,] [D,A,]2 [D,A,]2 [D,A,]2 [D,A,] | [D,,A,,D,]6 [B,,,E,,B,,]2 | %5
 [A,,,E,,A,,] [A,,,E,,A,,]2 [A,,,E,,A,,]2 [A,,,E,,A,,]2 [A,,,E,,A,,] |[K:treble]!sfz! [Ae]8 | A8 | %8
[K:bass] A,8 | A,6 B,2 | [C=E]2 z2 !^!D4- | D(.C.B,.C .D.C.D)C | %12
 [F,,C,=A,] [F,,C,A,]2 [F,,C,A,]2 [F,,C,A,]2 [F,,C,A,] | %13
!ped! .F,,(C,CC,)!ped-up! .F,,!ped!(C,CC,)!ped-up! | %14
 .F,,!ped!(C,B,C,)!ped-up! .F,,!ped!(C,B,C,)!ped-up! | (F,,.C,).=D,.=E, .F,.=A,.B,.=B, | %16
 z C, C2- C(=D/C/ B,/=A,/=G,/F,/) | %17
 !^![B,,F,][F,B,=D] !^![B,,^F,][F,B,D] !^![E,,B,,][E,C] !^![=E,,C,][=E,C] | %18
!ped! x _E2 =D!ped-up!!ped! x E2 D!ped-up! | F, (_D2 C) F, (_C2 [C,B,]) | %20
 (F,,.C,).=D,.=E, .F,.=A,.B,.=B, | z C, !^!C2- C(=D/C/ B,/=A,/=G,/F,/) | %22
 !^![B,,,F,,][F,B,=D] !^![B,,,^F,,][^F,B,D] !^![E,,B,,][E,=G,C] z2 | %23
 !^![C,,=G,,][=G,CE] !^![C,,^G,,][^G,CE] !^![F,,C,] [F,CE]2 [F,CE]- | %24
 [F,CE] [=F,CE]2 [F,CE]!sfz!!ped! [=G,B,C=E] [G,B,CE]2 [G,B,CE]!ped-up! | %25
!ped! !arpeggio!!^![C,=G,B,=E] z!ped-up!!ped! !^![=G,,_D,F,B,]6!ped-up! | %26
 (.D.C.B,.C .D.C.D)!tenuto![=G,=D] | [C,=G,] [C,G,]2 [C,G,]2 [C,G,]2 [C,G,]- | %28
 [C,G,] [C,=G,]2 [C,G,]2 [C,G,]2 [C,G,]- | [C,=G,]8 |] %30
V:5
 x8 | x8 | x8 | F F2 F2 F2 F | x6!8va(! x2 | x8 | x4 d'c'd'e'!8va)! | x4 dcde | cBA_G FE DE/F/ | %9
 (=GFE"_rit."F !>!G2 F2) | x8 | x8 | x8 | [=ac']([ac']/=d'/) (a=g [fa])([fa]/b/) f=e | %14
 =d2 d=e =A(A =G=E) | x8 | x8 | x8 | z ([=Acf]/=g/ f)[_A=B] z ([Acf]/"_dim."=g/ f)[_A=B] | %19
 x ([=GB]2 [^F=A]) x ([_F_A]2 [=E=G]) | x8 | x8 | x8 | x8 | x5 =GGB | x8 | x8 | x8 | x8 | x8 |] %30
V:6
 x8 | x8 | x8 | x8 | x8 | x8 |[K:treble] x8 | x8 |[K:bass] x8 | x8 | x8 | x8 | x8 | x8 | x8 | x8 | %16
 x8 | x8 | [F,,C,][F,E] z =D [F,,C,][F,E] z D | x8 | x8 | x8 | x8 | x8 | x8 | x8 | x8 | x8 | x8 | %29
 x8 |] %30

